!!!COM:      Bach, Johann Sebastian
!!!CDT:      1685/03/31/-1750/07/28/
!!!OPR@@GER: Das wohltemperirte Clavier
!!!OVM@@GER: Band I
!!!OPR@ENG:  Well-Tempered Clavier
!!!OVM@ENG:  Book I
!!!OTL:      Prelude
!!!OKY:      D minor
!!!ONM:      no. 6
!!!SCT:      BWV 851
!!!OMV:      1
**kern	**kern	**kern	**kern	**kern	**kern
*clefF4	*	*	*	*	*clefG2
*k[b-]	*	*	*	*	*k[b-]
*d:	*	*	*	*	*d:
*M4/4	*	*	*	*	*M4/4
*met(c)	*	*	*	*	*met(c)
*MM76	*MM76	*MM76	*MM76	*MM76	*MM76
=1-	=1-	=1-	=1-	=1-	=1-
8D	1ryy	1ryy	1ryy	1ryy	8r
8D	.	.	.	.	12r
.	.	.	.	.	24a
8D	.	.	.	.	24f
.	.	.	.	.	24d
.	.	.	.	.	24a
8D	.	.	.	.	24f
.	.	.	.	.	24d
.	.	.	.	.	24dd
8D	.	.	.	.	24b-
.	.	.	.	.	24g
.	.	.	.	.	24b-
8D	.	.	.	.	24g
.	.	.	.	.	24e
.	.	.	.	.	24g
8D	.	.	.	.	24e
.	.	.	.	.	24c#
.	.	.	.	.	24g
8D	.	.	.	.	24e
.	.	.	.	.	24c#
.	.	.	.	.	24a
=2	=2	=2	=2	=2	=2
8D	1ryy	1ryy	1ryy	1ryy	24f
.	.	.	.	.	24d
.	.	.	.	.	24a
8D	.	.	.	.	24f
.	.	.	.	.	24d
.	.	.	.	.	24aa
8d	.	.	.	.	24ff
.	.	.	.	.	24dd
.	.	.	.	.	24ff
8d	.	.	.	.	24dd
.	.	.	.	.	24a
.	.	.	.	.	24dd
8G	.	.	.	.	24b-
.	.	.	.	.	24g
.	.	.	.	.	24dd
8G	.	.	.	.	24b-
.	.	.	.	.	24g
.	.	.	.	.	24gg
8c	.	.	.	.	24ee
.	.	.	.	.	24cc
.	.	.	.	.	24ee
8c	.	.	.	.	24cc
.	.	.	.	.	24g
.	.	.	.	.	24cc
=3	=3	=3	=3	=3	=3
8F	1ryy	1ryy	1ryy	1ryy	24a
.	.	.	.	.	24f
.	.	.	.	.	24cc
8F	.	.	.	.	24a
.	.	.	.	.	24f
.	.	.	.	.	24ff
8B-	.	.	.	.	24dd
.	.	.	.	.	24b-
.	.	.	.	.	24dd
8G	.	.	.	.	24b-
.	.	.	.	.	24g
.	.	.	.	.	24gg
8c	.	.	.	.	24ee
.	.	.	.	.	24cc
.	.	.	.	.	24ee
8A	.	.	.	.	24cc
.	.	.	.	.	24a
.	.	.	.	.	24aa
8d	.	.	.	.	24ff
.	.	.	.	.	24dd
.	.	.	.	.	24ff
8D	.	.	.	.	24dd
.	.	.	.	.	24b-
.	.	.	.	.	24bb-
=4	=4	=4	=4	=4	=4
8E	1ryy	1ryy	1ryy	1ryy	24gg
.	.	.	.	.	24ee
.	.	.	.	.	24gg
8C	.	.	.	.	24ee
.	.	.	.	.	24cc
.	.	.	.	.	24ccc
8F	.	.	.	.	24aa
.	.	.	.	.	24ff
.	.	.	.	.	24aa
8E	.	.	.	.	24ff
.	.	.	.	.	24cc
.	.	.	.	.	24aa
8D	.	.	.	.	24ff
.	.	.	.	.	24dd
.	.	.	.	.	24ff
8C	.	.	.	.	24dd
.	.	.	.	.	24a
.	.	.	.	.	24ff
8BB-	.	.	.	.	24dd
.	.	.	.	.	24b-
.	.	.	.	.	24dd
8AA	.	.	.	.	24b-
.	.	.	.	.	24f
.	.	.	.	.	24dd
=5	=5	=5	=5	=5	=5
8GG	1ryy	1ryy	1ryy	1ryy	24b-
.	.	.	.	.	24g
.	.	.	.	.	24b-
8FF	.	.	.	.	24g
.	.	.	.	.	24d
.	.	.	.	.	24b-
8EE	.	.	.	.	24g
.	.	.	.	.	24c
.	.	.	.	.	24b-
8CC	.	.	.	.	24g
.	.	.	.	.	24e
.	.	.	.	.	24b-
8FF	.	.	.	.	24a
.	.	.	.	.	24f
.	.	.	.	.	24a
8AA	.	.	.	.	24f
.	.	.	.	.	24c
.	.	.	.	.	24f
8BB-	.	.	.	.	24d
.	.	.	.	.	24B-
.	.	.	.	.	24f
8C	.	.	.	.	24c
.	.	.	.	.	24B-
.	.	.	.	.	24e
=6	=6	=6	=6	=6	=6
4FF	1ryy	1ryy	1ryy	1ryy	24c
.	.	.	.	.	24A
.	.	.	.	.	24f
.	.	.	.	.	24c
.	.	.	.	.	24A
.	.	.	.	.	24c
8r	.	.	.	.	24A
.	.	.	.	.	24F
.	.	.	.	.	24c
8E-	.	.	.	.	24A
.	.	.	.	.	24F
.	.	.	.	.	24c
8D	.	.	.	.	24A
.	.	.	.	.	24F#
.	.	.	.	.	24c
8C	.	.	.	.	24A
.	.	.	.	.	24F#
.	.	.	.	.	24e-
8BB-	.	.	.	.	24A
.	.	.	.	.	24F#
.	.	.	.	.	24d
8AA	.	.	.	.	24A
.	.	.	.	.	24F#
.	.	.	.	.	24c
=7	=7	=7	=7	=7	=7
8GG	1ryy	1ryy	1ryy	1ryy	24B-
.	.	.	.	.	24G
.	.	.	.	.	24d
8BB-	.	.	.	.	24B-
.	.	.	.	.	24G
.	.	.	.	.	24d
8C	.	.	.	.	24B-
.	.	.	.	.	24G
.	.	.	.	.	24e
8D	.	.	.	.	24B-
.	.	.	.	.	24G
.	.	.	.	.	24f#
8E-	.	.	.	.	24B-
.	.	.	.	.	24G
.	.	.	.	.	24g
8BB-	.	.	.	.	24d
.	.	.	.	.	24B-
.	.	.	.	.	24g
8C	.	.	.	.	24e-
.	.	.	.	.	24A
.	.	.	.	.	24g
8D	.	.	.	.	24d
.	.	.	.	.	24A
.	.	.	.	.	24f#X
=8	=8	=8	=8	=8	=8
4GG	1ryy	1ryy	1ryy	1ryy	24d
.	.	.	.	.	24B-
.	.	.	.	.	24g
.	.	.	.	.	24d
.	.	.	.	.	24B-
.	.	.	.	.	24d
8r	.	.	.	.	24B-
.	.	.	.	.	24G
.	.	.	.	.	24d
8F	.	.	.	.	24B-
.	.	.	.	.	24G
.	.	.	.	.	24d
8E	.	.	.	.	24Bn
.	.	.	.	.	24G#
.	.	.	.	.	24d
8D	.	.	.	.	24B
.	.	.	.	.	24G#
.	.	.	.	.	24f
8C	.	.	.	.	24B
.	.	.	.	.	24G#
.	.	.	.	.	24e
8BBn	.	.	.	.	24B
.	.	.	.	.	24G#
.	.	.	.	.	24d
=9	=9	=9	=9	=9	=9
8AA	1ryy	1ryy	1ryy	1ryy	24c
.	.	.	.	.	24A
.	.	.	.	.	24e
8C	.	.	.	.	24c
.	.	.	.	.	24A
.	.	.	.	.	24e
8D	.	.	.	.	24c
.	.	.	.	.	24A
.	.	.	.	.	24f#
8E	.	.	.	.	24c
.	.	.	.	.	24A
.	.	.	.	.	24g#
8F	.	.	.	.	24c
.	.	.	.	.	24A
.	.	.	.	.	24a
8C	.	.	.	.	24e
.	.	.	.	.	24c
.	.	.	.	.	24a
8D	.	.	.	.	24fn
.	.	.	.	.	24Bn
.	.	.	.	.	24a
8E	.	.	.	.	24e
.	.	.	.	.	24B
.	.	.	.	.	24g#X
=10	=10	=10	=10	=10	=10
8AA	1ryy	1ryy	1ryy	1ryy	24e
.	.	.	.	.	24c
.	.	.	.	.	24a
8A	.	.	.	.	24e
.	.	.	.	.	24c
.	.	.	.	.	24cc
8A	.	.	.	.	24f
.	.	.	.	.	24d
.	.	.	.	.	24b-X
8G	.	.	.	.	24g
.	.	.	.	.	24e
.	.	.	.	.	24b-
8F	.	.	.	.	24a
.	.	.	.	.	24f
.	.	.	.	.	24a
8FF	.	.	.	.	24c
.	.	.	.	.	24A
.	.	.	.	.	24a
8FF	.	.	.	.	24d
.	.	.	.	.	24Bn
.	.	.	.	.	24g
8EE	.	.	.	.	24e
.	.	.	.	.	24c#
.	.	.	.	.	24g
=11	=11	=11	=11	=11	=11
8DD	1ryy	1ryy	1ryy	1ryy	24f
.	.	.	.	.	24d
.	.	.	.	.	24dd
8D	.	.	.	.	24a
.	.	.	.	.	24f
.	.	.	.	.	24ff
8D	.	.	.	.	24b-
.	.	.	.	.	24g
.	.	.	.	.	24ee-
8C	.	.	.	.	24cc
.	.	.	.	.	24a
.	.	.	.	.	24ee-
8BB-	.	.	.	.	24dd
.	.	.	.	.	24b-
.	.	.	.	.	24dd
8B-	.	.	.	.	24f
.	.	.	.	.	24d
.	.	.	.	.	24dd
8B-	.	.	.	.	24g
.	.	.	.	.	24en
.	.	.	.	.	24cc
8A	.	.	.	.	24a
.	.	.	.	.	24f#
.	.	.	.	.	24cc
=12	=12	=12	=12	=12	=12
4G	1ryy	1ryy	1ryy	1ryy	24b-
.	.	.	.	.	24g
.	.	.	.	.	24dd
.	.	.	.	.	24b-
.	.	.	.	.	24g
.	.	.	.	.	24gg
8r	.	.	.	.	24ee-
.	.	.	.	.	24g
.	.	.	.	.	24gg
8B-	.	.	.	.	24dd
.	.	.	.	.	24g
.	.	.	.	.	24gg
8A	.	.	.	.	24cc#
.	.	.	.	.	24a
.	.	.	.	.	24gg
8G	.	.	.	.	24een
.	.	.	.	.	24cc#
.	.	.	.	.	24bb-
8F	.	.	.	.	24ee
.	.	.	.	.	24cc#
.	.	.	.	.	24aa
8E	.	.	.	.	24ee
.	.	.	.	.	24cc#
.	.	.	.	.	24gg
=13	=13	=13	=13	=13	=13
8D	1ryy	1ryy	1ryy	1ryy	24ff
.	.	.	.	.	24dd
.	.	.	.	.	24a
8F	.	.	.	.	24f
.	.	.	.	.	24d
.	.	.	.	.	24a
8G	.	.	.	.	24f
.	.	.	.	.	24d
.	.	.	.	.	24bn
8A	.	.	.	.	24f
.	.	.	.	.	24d
.	.	.	.	.	24cc#
8B-	.	.	.	.	24f
.	.	.	.	.	24d
.	.	.	.	.	24dd
8F	.	.	.	.	24f
.	.	.	.	.	24d
.	.	.	.	.	24a
8G	.	.	.	.	24f
.	.	.	.	.	24d
.	.	.	.	.	24b-
8A	.	.	.	.	24e
.	.	.	.	.	24c#X
.	.	.	.	.	24a
=14	=14	=14	=14	=14	=14
8BB-	1ryy	1ryy	1ryy	1ryy	24e
.	.	.	.	.	24c#
.	.	.	.	.	24g
8FF	.	.	.	.	24d
.	.	.	.	.	24A
.	.	.	.	.	24f
8GG	.	.	.	.	24d
.	.	.	.	.	24B-
.	.	.	.	.	24e
8AA	.	.	.	.	24cn
.	.	.	.	.	24F
.	.	.	.	.	24e-
8BB-	.	.	.	.	24B-
.	.	.	.	.	24F
.	.	.	.	.	24d
8FF	.	.	.	.	24A
.	.	.	.	.	24F
.	.	.	.	.	24d
8GG	.	.	.	.	24B-
.	.	.	.	.	24En
.	.	.	.	.	24d
8AA	.	.	.	.	24A
.	.	.	.	.	24E
.	.	.	.	.	24c#
=15	=15	=15	=15	=15	=15
[4.DD	1ryy	1ryy	1ryy	1ryy	24A
.	.	.	.	.	24F#
.	.	.	.	.	24A
.	.	.	.	.	24cn
.	.	.	.	.	24A
.	.	.	.	.	24c
.	.	.	.	.	24e-
.	.	.	.	.	24c
.	.	.	.	.	24e-
24DD]	.	.	.	.	8f#X
24FF#	.	.	.	.	.
24AA	.	.	.	.	.
[4.D	.	.	.	.	24B-
.	.	.	.	.	24G
.	.	.	.	.	24B-
.	.	.	.	.	24d
.	.	.	.	.	24B-
.	.	.	.	.	24d
.	.	.	.	.	24g
.	.	.	.	.	24d
.	.	.	.	.	24g
24D]	.	.	.	.	[8b-
24G	.	.	.	.	.
24B-	.	.	.	.	.
=16	=16	=16	=16	=16	=16
8c#	1ryy	1ryy	1ryy	1ryy	24b-]
.	.	.	.	.	24g
.	.	.	.	.	24ee
8D	.	.	.	.	24b-
.	.	.	.	.	24g
.	.	.	.	.	24gg
8c#	.	.	.	.	24b-
.	.	.	.	.	24g
.	.	.	.	.	24ee
8D	.	.	.	.	24b-
.	.	.	.	.	24g
.	.	.	.	.	24cc#
8c#	.	.	.	.	24b-
.	.	.	.	.	24g
.	.	.	.	.	24ee
8D	.	.	.	.	24b-
.	.	.	.	.	24g
.	.	.	.	.	24gg
8c#	.	.	.	.	24b-
.	.	.	.	.	24g
.	.	.	.	.	24ee
8D	.	.	.	.	24b-
.	.	.	.	.	24g
.	.	.	.	.	24cc#X
=17	=17	=17	=17	=17	=17
8cn	1ryy	1ryy	1ryy	1ryy	24a
.	.	.	.	.	24f#
.	.	.	.	.	24dd
8D	.	.	.	.	24a
.	.	.	.	.	24f#
.	.	.	.	.	24ee-
8c	.	.	.	.	24a
.	.	.	.	.	24f#
.	.	.	.	.	24dd
8D	.	.	.	.	24a
.	.	.	.	.	24f#
.	.	.	.	.	24cc
8c	.	.	.	.	24a
.	.	.	.	.	24f#
.	.	.	.	.	24dd
8D	.	.	.	.	24a
.	.	.	.	.	24f#
.	.	.	.	.	24ee-X
8c	.	.	.	.	24a
.	.	.	.	.	24f#
.	.	.	.	.	24dd
8D	.	.	.	.	24a
.	.	.	.	.	24f#
.	.	.	.	.	24cc
=18	=18	=18	=18	=18	=18
8B-	1ryy	1ryy	1ryy	1ryy	24g
.	.	.	.	.	24d
.	.	.	.	.	24g
8D	.	.	.	.	24b-
.	.	.	.	.	24g
.	.	.	.	.	24b-
8B-	.	.	.	.	24dd
.	.	.	.	.	24b-
.	.	.	.	.	24dd
8D	.	.	.	.	24gg
.	.	.	.	.	24dd
.	.	.	.	.	24gg
8G	.	.	.	.	24bb-
.	.	.	.	.	24aa
.	.	.	.	.	24gg
8D	.	.	.	.	24ff
.	.	.	.	.	24ee
.	.	.	.	.	24dd
8G	.	.	.	.	24cc#
.	.	.	.	.	24a
.	.	.	.	.	24cc#
8D	.	.	.	.	24ee
.	.	.	.	.	24cc#
.	.	.	.	.	24ee
=19	=19	=19	=19	=19	=19
8E	1ryy	1ryy	1ryy	1ryy	24gg
.	.	.	.	.	24ee
.	.	.	.	.	24dd
8D	.	.	.	.	24cc#
.	.	.	.	.	24bn
.	.	.	.	.	24a
8E	.	.	.	.	24g
.	.	.	.	.	24e
.	.	.	.	.	24g
8D	.	.	.	.	24b-
.	.	.	.	.	24g
.	.	.	.	.	24b-
8E	.	.	.	.	24cc#X
.	.	.	.	.	24g
.	.	.	.	.	24ee
8D	.	.	.	.	24cc#
.	.	.	.	.	24b-
.	.	.	.	.	24ee
8E	.	.	.	.	24cc#
.	.	.	.	.	24a
.	.	.	.	.	24ee
8D	.	.	.	.	24cc#
.	.	.	.	.	24g
.	.	.	.	.	24ee
=20	=20	=20	=20	=20	=20
*	*staff:5	*	*	*	*
*	*clefF4	*	*	*	*
*	*k[b-]	*	*	*	*
8F#	2ryy	1ryy	1ryy	1ryy	24ccn
.	.	.	.	.	24a
.	.	.	.	.	24dd
8D	.	.	.	.	24b-
.	.	.	.	.	24g
.	.	.	.	.	24ee-
8F#	.	.	.	.	24a
.	.	.	.	.	24f#
.	.	.	.	.	24dd
[8D	.	.	.	.	24a
.	.	.	.	.	24f#
.	.	.	.	.	24cc
2D_	8G	.	.	.	24g
.	.	.	.	.	24d
.	.	.	.	.	24b-
.	8A	.	.	.	24g
.	.	.	.	.	24fn
.	.	.	.	.	24b-
.	8G	.	.	.	24g
.	.	.	.	.	24e-X
.	.	.	.	.	24b-
.	8Fn	.	.	.	24g
.	.	.	.	.	24d
.	.	.	.	.	24b-
=21	=21	=21	=21	=21	=21
2D]	8E	1ryy	1ryy	1ryy	24g
.	.	.	.	.	24c#
.	.	.	.	.	24b-
.	8G	.	.	.	24e
.	.	.	.	.	24c#
.	.	.	.	.	24b-
.	8F	.	.	.	24e
.	.	.	.	.	24c#
.	.	.	.	.	24a
.	8E	.	.	.	24e
.	.	.	.	.	24c#
.	.	.	.	.	24g
4.GG#	8D	.	.	.	24d
.	.	.	.	.	24Bn
.	.	.	.	.	24f
.	8E	.	.	.	24d
.	.	.	.	.	24cn
.	.	.	.	.	24f
.	4F	.	.	.	24d
.	.	.	.	.	24Bn
.	.	.	.	.	24f
8AA	.	.	.	.	24d
.	.	.	.	.	24A
.	.	.	.	.	24f
=22	=22	=22	=22	=22	=22
2BB-	8E	1ryy	1ryy	1ryy	24c#
.	.	.	.	.	24G
.	.	.	.	.	24e
.	8G	.	.	.	24c#
.	.	.	.	.	24B-X
.	.	.	.	.	24e
.	8F	.	.	.	24c#
.	.	.	.	.	24A
.	.	.	.	.	24e
.	8E	.	.	.	24c#
.	.	.	.	.	24G
.	.	.	.	.	24e
4.BBn	8F	.	.	.	24Bn
.	.	.	.	.	24G#
.	.	.	.	.	24d
.	8E	.	.	.	24c#X
.	.	.	.	.	24G#
.	.	.	.	.	24e
.	[8F	.	.	.	24d
.	.	.	.	.	24G#
.	.	.	.	.	24f
8BB-	24F]	.	.	.	[8Gn
.	24E	.	.	.	.
.	24D	.	.	.	.
=23	=23	=23	=23	=23	=23
[4.AA	8C#	1ryy	1ryy	1ryy	24G]
.	.	.	.	.	24E
.	.	.	.	.	24G
.	8E	.	.	.	24c#
.	.	.	.	.	24G
.	.	.	.	.	24c#
.	8G	.	.	.	24e
.	.	.	.	.	24c#
.	.	.	.	.	24e
24AA]	8B-	.	.	.	8g
24C#X	.	.	.	.	.
24E	.	.	.	.	.
[4.A	8A	.	.	.	24f
.	.	.	.	.	24d
.	.	.	.	.	24f
.	8d	.	.	.	24a
.	.	.	.	.	24f
.	.	.	.	.	24a
.	8f	.	.	.	24dd
.	.	.	.	.	24a
.	.	.	.	.	24dd
24A]	8a	.	.	.	[8ff
24d	.	.	.	.	.
24f	.	.	.	.	.
=24	=24	=24	=24	=24	=24
8g#	1r	1ryy	1ryy	1ryy	24ff]
.	.	.	.	.	24bn
.	.	.	.	.	24dd
8r	.	.	.	.	24ff
.	.	.	.	.	24dd
.	.	.	.	.	24ff
4r	.	.	.	.	24gg#
.	.	.	.	.	24ff
.	.	.	.	.	24gg#
.	.	.	.	.	24bbn
.	.	.	.	.	24gg#
.	.	.	.	.	24ff
2r	.	.	.	.	24bb-
.	.	.	.	.	24ggn
.	.	.	.	.	24ee
.	.	.	.	.	24aa
.	.	.	.	.	24ff#
.	.	.	.	.	24dd#
.	.	.	.	.	24gg#
.	.	.	.	.	24ffn
.	.	.	.	.	24ddn
.	.	.	.	.	24ggn
.	.	.	.	.	24ee
.	.	.	.	.	24cc#
=25	=25	=25	=25	=25	=25
*	*	*staff:1	*staff:2	*staff:2	*
*	*	*clefF4	*clefG2	*clefG2	*
*	*	*k[b-]	*k[b-]	*k[b-]	*
2r	2ryy	2r	2ryy	2ryy	24ff#
.	.	.	.	.	24ee-
.	.	.	.	.	24cc
.	.	.	.	.	24ffn
.	.	.	.	.	24dd
.	.	.	.	.	24bn
.	.	.	.	.	24een
.	.	.	.	.	24cc#
.	.	.	.	.	24b-
.	.	.	.	.	24ee-
.	.	.	.	.	24ccn
.	.	.	.	.	24a
4r	4ryy	4r	4r	4ryy	[2dd
4BBn	4D 4F	4G#	4d 4f	4g# 4bn	.
=26	=26	=26	=26	=26	=26
2AA	4D 4F	2A	4d 4f	2a	4dd]
.	4E	.	4e 4g	.	4cc#
2DD	2D	2ryy	2d;y 2f#;y	2a;y	2dd;
==	==	==	==	==	==
*-	*-	*-	*-	*-	*-
!!!AFR:  prelude
!!!EFL:  11/96
!!!END:  1994/01/11/
!!!VID:  2457429434 Bach, BWV 851-01
!!!AST:  Baroque
!!!OCY:  Deutschland
!!!ODT:  1722///
!!!PDT:  1801///
!!!EED:  Walter Hewlett
!!!ENC:  Walter Hewlett
!!!YOR:  Bach Gesellschaft Edition xiv
!!!AFT:  enhanced SCORE
!!!RDT:  2011/10/07/ by Andreas Kornstaedt using massScr2hmd
!!!SCA1: Thematisch-systematisches Verzeichnis der musikalischen Werke 
!!!SCA2: Johann Sebastian Bach: Bach-Werke-Verzeichnis (Schmieder)
!!!YEC1: Copyright 1994, 2000 Center for Computer Assisted Research 
!!!YEC2: in the Humanities
!!!YEM1: Rights to all derivative editions reserved.
!!!YEM2: Refer to licensing agreement for further details.
!!!YEN:  United States of America
!!!ref:  @{OTL}, @{SCT}
!!muse2ps: T^@{OTL} @{ONM} in @{OKY}^C^J.S. Bach\n@{SCT}-@{OMV}^
!!muse2ps: u^@{OPR@ENG}, @{OVM@ENG}^j
